!!!OTL: ICH GING WOL IN DIE SCHENKE
!!!ARE: Europa, Mitteleuropa, Deutschland, Halle, Loebejuen
!!!SCT: E0203E
!!!YEM: Copyright 1995, estate of Helmut Schaffrath.
**kern
*ICvox
*Ivox
*M2/4
*k[f#]
*G:
{8d
=1
8.g
16f#
8g
8b
=2
4dd
8b}
{8dd
=3
8dd
8cc
8a
8f#
=4
4g
8r}
{8g
=5
4ee
8ee
8ee
=6
8ee
8dd
8dd}
{8b
=7
4dd
4cc
=8
4b
8r}
==
!!!AGN: erzaehlendes Volks - Lied, Todes - Ahnung; betrogene Liebe
!!!ONB: ESAC (Essen Associative Code) Database: ERK1
!!!AMT: simple duple
!!!AIN: vox
!!!EED: Helmut Schaffrath
!!!EEV: 1.0
*-
